contributed-vectors/fidelity_investments.svg

<?xml version="1.0" encoding="UTF-8" standalone="no"?>
<svg
   xmlns:dc="http://purl.org/dc/elements/1.1/"
   xmlns:cc="http://creativecommons.org/ns#"
   xmlns:rdf="http://www.w3.org/1999/02/22-rdf-syntax-ns#"
   xmlns:svg="http://www.w3.org/2000/svg"
   xmlns="http://www.w3.org/2000/svg"
   xmlns:sodipodi="http://sodipodi.sourceforge.net/DTD/sodipodi-0.dtd"
   xmlns:inkscape="http://www.inkscape.org/namespaces/inkscape"
   sodipodi:docname="fidelity_investments.svg"
   inkscape:version="1.0.1 (3bc2e813f5, 2020-09-07)"
   version="1.1"
   id="svg2"
   viewBox="0 0 192 192"
   height="192"
   width="192"
   inkscape:export-filename="/home/jphilippe/inkscape/icônes/delta-github/png/fidelity_investments.png"
   inkscape:export-xdpi="96"
   inkscape:export-ydpi="96">
  <sodipodi:namedview
     inkscape:document-rotation="0"
     inkscape:window-maximized="1"
     inkscape:window-y="30"
     inkscape:window-x="1920"
     inkscape:window-height="1022"
     inkscape:window-width="1680"
     units="px"
     showgrid="false"
     inkscape:current-layer="layer1"
     inkscape:document-units="px"
     inkscape:cy="-80.572016"
     inkscape:cx="-178.46061"
     inkscape:zoom="0.25"
     inkscape:pageshadow="2"
     inkscape:pageopacity="0.0"
     borderopacity="1.0"
     bordercolor="#666666"
     pagecolor="#ffffff"
     id="base"
     inkscape:snap-bbox="false"
     inkscape:object-paths="true"
     inkscape:snap-nodes="true"
     showguides="true"
     inkscape:guide-bbox="true"
     inkscape:snap-object-midpoints="true"
     inkscape:snap-center="true"
     inkscape:snap-global="true"
     inkscape:snap-intersection-paths="true"
     inkscape:snap-smooth-nodes="true"
     inkscape:snap-midpoints="true" />
  <defs
     id="defs4" />
  <metadata
     id="metadata7">
    <rdf:RDF>
      <cc:Work
         rdf:about="">
        <dc:format>image/svg+xml</dc:format>
        <dc:type
           rdf:resource="http://purl.org/dc/dcmitype/StillImage" />
        <dc:title></dc:title>
      </cc:Work>
    </rdf:RDF>
  </metadata>
  <g
     transform="translate(0,-860.36216)"
     id="layer1"
     inkscape:groupmode="layer"
     inkscape:label="Calque 1">
    <g
       id="g894">
      <circle
         style="fill:#fefefe;fill-opacity:1;fill-rule:evenodd;stroke:none;stroke-width:1;stroke-opacity:1"
         cx="96"
         cy="956.36218"
         id="circle939"
         r="87.999947" />
      <path
         id="circle886"
         style="fill:#72a373;fill-opacity:1;fill-rule:evenodd;stroke:none;stroke-width:1;stroke-opacity:1"
         d="M 95.814453 8 A 87.999947 87.999947 0 0 0 8 96 A 87.999947 87.999947 0 0 0 62.71875 177.46289 L 81.904297 118.25195 L 124.15039 118.25195 L 114.91602 112.26367 L 83.298828 112.26367 L 83.275391 112.23828 L 95.630859 72.527344 L 74.685547 106.1543 L 80.951172 110.58203 L 71.912109 110.58203 L 63.960938 123.23047 L 30.097656 140.96289 L 29.625 141.20703 C 29.376172 141.30393 29.299026 141.05583 29.529297 140.86133 L 71.816406 104.94141 L 18 111.21484 C 17.844307 111.21765 17.715784 111.01195 18 110.86133 L 70.169922 95.533203 L 17.716797 80.1875 C 17.526955 80.1012 17.526955 79.935974 17.716797 79.833984 L 71.816406 85.548828 L 29.433594 50.746094 C 29.370223 50.646304 29.522772 50.476794 29.710938 50.558594 L 77.365234 76.595703 L 52.154297 28.59375 C 52.118615 28.39293 52.334775 28.357702 52.439453 28.507812 L 85.765625 71.882812 L 81.873047 15.75 C 81.867368 15.48321 82.131378 15.37026 82.257812 15.75 L 96.388672 69.865234 L 112.52734 17.326172 C 112.68532 16.906532 112.94565 17.154167 112.90625 17.429688 L 106.16797 71.537109 L 141.25977 30.351562 C 141.41013 30.175592 141.55377 30.291461 141.42578 30.525391 L 114.56641 77.912109 L 163.22266 53.246094 C 163.43322 53.152464 163.79343 53.143333 163.48242 53.408203 L 120.28125 86.115234 L 175.5957 82.513672 C 175.7613 82.510212 175.71376 82.73255 175.50977 82.78125 L 121.58984 95.800781 L 173.47656 113.99609 L 173.86328 114.12305 C 174.03003 114.18019 173.91182 114.50542 173.57031 114.45312 L 118.54102 106.06055 L 161.08789 142.79297 C 161.2954 143.02397 161.13265 143.29075 160.90625 143.18555 L 128.42188 125.06836 L 151.81445 164.0332 A 87.999947 87.999947 0 0 0 184 96 A 87.999947 87.999947 0 0 0 96 8 A 87.999947 87.999947 0 0 0 95.814453 8 z "
         transform="translate(0,860.36216)" />
    </g>
  </g>
  <style
     type="text/css"
     id="style853">
	.st0{fill:#FFFFFF;}
</style>
</svg>

<svg xmlns="http://www.w3.org/2000/svg" id="svg2" width="192" height="192" version="1.1"><g id="layer1" transform="translate(0 -860.362)"><g id="g894"><circle id="circle939" cx="96" cy="956.362" r="88" style="fill:#fefefe;fill-opacity:1;fill-rule:evenodd;stroke:none;stroke-width:1;stroke-opacity:1"/><path id="circle886" d="M95.814 8A88 88 0 0 0 8 96a88 88 0 0 0 54.719 81.463l19.185-59.211h42.246l-9.234-5.988H83.299l-.024-.026 12.356-39.71-20.945 33.626 6.265 4.428h-9.039l-7.951 12.648-33.863 17.733-.473.244c-.249.097-.326-.151-.096-.346l42.287-35.92L18 111.215c-.156.003-.284-.203 0-.354l52.17-15.328-52.453-15.346c-.19-.086-.19-.251 0-.353l54.1 5.715-42.383-34.803c-.064-.1.089-.27.277-.187l47.654 26.037-25.21-48.002c-.036-.201.18-.236.284-.086l33.327 43.375-3.893-56.133c-.006-.267.258-.38.385 0l14.13 54.115 16.14-52.539c.157-.42.418-.172.378.104l-6.738 54.107 35.092-41.185c.15-.176.294-.06.166.173l-26.86 47.387 48.657-24.666c.21-.094.57-.103.26.162L120.28 86.115l55.315-3.601c.165-.004.118.219-.086.267l-53.92 13.02 51.887 18.195.386.127c.167.057.049.382-.293.33l-55.029-8.392 42.547 36.732c.207.231.045.498-.182.393l-32.484-18.118 23.392 38.965A88 88 0 0 0 184 96 88 88 0 0 0 96 8a88 88 0 0 0-.186 0z" style="fill:#72a373;fill-opacity:1;fill-rule:evenodd;stroke:none;stroke-width:1;stroke-opacity:1" transform="translate(0 860.362)"/></g></g><style id="style853" type="text/css">.st0{fill:#fff}</style></svg>
